X:66
T:RVW2/2/66 The Angel Inn At Manchester
C:Thomas Ellis, East Horndon, Essex, 22 April 1904
L:1/8
Q:1/4=99
M:6/8
I:linebreak $
K:G
"^(Editorial suggestion)  " D | G2 G G2 G | G2 G D2 D | G2 G A2 A | B3- B2 G |$ G2 G D2 D | 
E2 E D2 D | G2 A B2 A | G3- G2 |] 



